X: 21302
T: Highland King
%R: air, reel
B: James Oswald "The Caledonian Pocket Companion" v.2 p.130 #2
Z: 2018 John Chambers <jc:trillian.mit.edu>
M: C
L: 1/8
K: Gm
"_Slow"(dc) |\
(BA)(AG) G2ba | (ag)(g^f) g3a | (ba)(ba) (bg)(fd) | (ed)(cB) c2 (B/c/d) | G3A (BA)(Bc) |
.d(bag) .a(c'ba) | .b(gfd) (ce)(dc) | {c}B2 (TAG)G2 :: (ga) | (ba)(gf) d3g | {g}fdcd B3c |
d3g T^f2ga | {ga}b2ag d'3c' | (ba)(gf) (dc)(dg) | (3(gfd) (3(dcB) Tc2B>c |d3g ({g}fd)(cd) | {c}B2 T(AG) G2 :|


